src/img/time_icon.svg

<svg xmlns="http://www.w3.org/2000/svg" width="12" height="12" fill="none">
  <path fill="#fff" d="M6 11.625c-1.11252 0-2.20005-.3299-3.12508-.948-.92503-.6181-1.646-1.49657-2.07174-2.5244C.377437 7.12476.266043 5.99376.483085 4.90262.700127 3.81148 1.23586 2.8092 2.02253 2.02253S3.81148.700127 4.90262.483085C5.99376.266043 7.12476.377437 8.1526.80318c1.02783.42574 1.9063 1.14671 2.5244 2.07174.6181.92503.948 2.01256.948 3.12508 0 1.49184-.5926 2.92259-1.64752 3.97748C8.92259 11.0324 7.49184 11.625 6 11.625Zm0-10.5c-.96418 0-1.90671.28592-2.7084.82159-.80169.53567-1.42653 1.29704-1.79551 2.18783-.36898.89079-.46552 1.87099-.27742 2.81665.18811.94566.65241 1.8143 1.33419 2.49608.68178.68175 1.55042 1.14605 2.49608 1.33415.94565.1881 1.92585.0916 2.81664-.2774s1.65217-.9938 2.18782-1.79549c.5357-.80169.8216-1.74422.8216-2.70841 0-1.29293-.5136-2.5329-1.42785-3.44714C8.53291 1.63862 7.29293 1.125 6 1.125Z"/>
  <path fill="#fff" d="M7.59001 8.1225 5.73376 6.26625a.374991.374991 0 0 1-.08092-.12228A.374977.374977 0 0 1 5.62501 6V3h.75v2.84625L8.12251 7.59l-.5325.5325Z"/>
</svg>

<svg width="12" height="12" viewBox="0 0 12 12" fill="none" xmlns="http://www.w3.org/2000/svg">
<path d="M6 11.625C4.88748 11.625 3.79995 11.2951 2.87492 10.677C1.94989 10.0589 1.22892 9.18043 0.80318 8.1526C0.377437 7.12476 0.266043 5.99376 0.483085 4.90262C0.700127 3.81148 1.23586 2.8092 2.02253 2.02253C2.8092 1.23586 3.81148 0.700127 4.90262 0.483085C5.99376 0.266043 7.12476 0.377437 8.1526 0.80318C9.18043 1.22892 10.0589 1.94989 10.677 2.87492C11.2951 3.79995 11.625 4.88748 11.625 6C11.625 7.49184 11.0324 8.92259 9.97748 9.97748C8.92259 11.0324 7.49184 11.625 6 11.625ZM6 1.125C5.03582 1.125 4.09329 1.41092 3.2916 1.94659C2.48991 2.48226 1.86507 3.24363 1.49609 4.13442C1.12711 5.02521 1.03057 6.00541 1.21867 6.95107C1.40678 7.89673 1.87108 8.76537 2.55286 9.44715C3.23464 10.1289 4.10328 10.5932 5.04894 10.7813C5.99459 10.9694 6.97479 10.8729 7.86558 10.5039C8.75637 10.1349 9.51775 9.5101 10.0534 8.70841C10.5891 7.90672 10.875 6.96419 10.875 6C10.875 4.70707 10.3614 3.4671 9.44715 2.55286C8.53291 1.63862 7.29293 1.125 6 1.125Z" fill="white"/>
<path d="M7.59001 8.1225L5.73376 6.26625C5.699 6.23121 5.6715 6.18965 5.65284 6.14397C5.63418 6.09828 5.62472 6.04935 5.62501 6V3H6.37501V5.84625L8.12251 7.59L7.59001 8.1225Z" fill="white"/>
</svg>
